Mono Glyph Icons/misc/misc-unfilled/post.svg

<svg height="48" viewBox="0 -960 960 960" width="48" xmlns="http://www.w3.org/2000/svg"><path d="m771-95h-582q-39.8 0-66.9-27.1-27.1-27.1-27.1-66.9v-582q0-40.21 27.1-67.61 27.1-27.39 66.9-27.39h582q40.21 0 67.61 27.39 27.39 27.4 27.39 67.61v582q0 39.8-27.39 66.9-27.4 27.1-67.61 27.1zm-20-173h-542v74h542zm-542-41h542v-73h-542zm0-123h542v-319h-542zm0 164v74zm0-41v-73zm0-123v-319zm0 50v-50zm0 114v-41z"/></svg>

<svg xmlns="http://www.w3.org/2000/svg" height="48" viewBox="0 -960 960 960" width="48"><path d="M771-95H189q-39.8 0-66.9-27.1Q95-149.2 95-189v-582q0-40.21 27.1-67.61Q149.2-866 189-866h582q40.21 0 67.61 27.39Q866-811.21 866-771v582q0 39.8-27.39 66.9Q811.21-95 771-95Zm-20-173H209v74h542v-74Zm-542-41h542v-73H209v73Zm0-123h542v-319H209v319Zm0 164v74-74Zm0-41v-73 73Zm0-123v-319 319Zm0 50v-50 50Zm0 114v-41 41Z"/></svg>
